; generated by PrusaSlicer 2.7.1+win64 on 2024-02-13 at 18:50:48 UTC

; 

; external perimeters extrusion width = 0.45mm
; perimeters extrusion width = 0.45mm
; infill extrusion width = 0.45mm
; solid infill extrusion width = 0.45mm
; top infill extrusion width = 0.20mm
; support material extrusion width = 0.35mm
; first layer extrusion width = 0.42mm

M201 X500 Y500 Z100 E5000 ; sets maximum accelerations, mm/sec^2
M203 X500 Y500 Z10 E60 ; sets maximum feedrates, mm / sec
M204 S500 T1000 ; sets acceleration (S) and retract acceleration (R), mm/sec^2
M205 X8.00 Y8.00 Z0.40 E5.00 ; sets the jerk limits, mm/sec
M205 S0 T0 ; sets the minimum extruding and travel feed rate, mm/sec
;TYPE:Custom
G90 ; use absolute coordinates
M83 ; extruder relative mode
M104 S150 ; set temporary nozzle temp to prevent oozing during homing
M140 S60 ; set final bed temp
G4 S30 ; allow partial nozzle warmup
G28 ; home all axis and restore leveling
G1 Z50 F240
G1 X2.0 Y10 F3000
M104 S215 ; set final nozzle temp
M190 S60 ; wait for bed temp to stabilize
M109 S215 ; wait for nozzle temp to stabilize
G1 Z0.28 F240
G92 E0
G1 X2.0 Y140 E10 F1500 ; prime the nozzle
G1 X2.3 Y140 F5000
G92 E0
G1 X2.3 Y10 E10 F1200 ; prime the nozzle
G92 E0
G21 ; set units to millimeters
G90 ; use absolute coordinates
M83 ; use relative distances for extrusion
; Filament gcode
M107
;LAYER_CHANGE
;Z:0.35
;HEIGHT:0.35
;BEFORE_LAYER_CHANGE
G92 E0
;0.35


G1 E-.8 F1800
G1 Z.35 F7800
;AFTER_LAYER_CHANGE
;0.35
G1 X38.596 Y101.533
G1 Z.35
G1 E.8 F1800
;TYPE:Skirt/Brim
;WIDTH:0.42
G1 X40.955 Y100.789 E.12414
G1 X175.516 Y86.047 E6.79347
G1 X177.755 Y86.201 E.11263
G1 X179.917 Y87.207 E.11967
G1 X181.349 Y88.238 E.08855
G1 X182.908 Y89.852 E.11262
G1 X183.942 Y92.656 E.14998
G1 X185.804 Y109.148 E.83292
G1 X185.632 Y111.145 E.10059
G1 X185.23 Y112.6 E.07576
G1 X184.605 Y113.974 E.07575
G1 X183.773 Y115.232 E.07569
G1 X182.755 Y116.345 E.0757
G1 X181.575 Y117.285 E.07571
G1 X180.262 Y118.029 E.07574
G1 X178.85 Y118.558 E.07567
G1 X139.002 Y127.808 E2.05298
G1 X87.852 Y133.461 E2.58264
G1 X45.645 Y133.979 E2.11836
G1 X44.304 Y133.885 E.06746
G1 X43.16 Y133.656 E.05855
G1 X41.736 Y133.156 E.07574
G1 X40.408 Y132.439 E.07574
G1 X39.21 Y131.524 E.07565
G1 X38.491 Y130.812 E.05078
G1 X37.569 Y129.617 E.07575
G1 X36.847 Y128.293 E.07568
G1 X36.383 Y127.023 E.06786
G1 X36.076 Y125.504 E.07777
G1 X34.191 Y109.152 E.82607
G1 X34.333 Y106.913 E.11259
G1 X35.698 Y104.272 E.1492
G1 X36.85 Y102.943 E.08827
G1 X38.549 Y101.57 E.10963
;WIPE_START
G1 F6240
G1 X38.596 Y101.533 E-.01639
G1 X40.955 Y100.789 E-.67785
G1 X41.339 Y100.747 E-.10576
;WIPE_END
G1 X41.828 Y107.657 F7800
G1 E.8 F1800
G1 X41.979 Y107.576 E.0086
G1 X57.639 Y107.086 E.7863
G1 X74.971 Y106.231 E.87088
G1 X93.036 Y104.955 E.90887
G1 X109.543 Y103.418 E.832
G1 X118.318 Y102.446 E.44307
G1 X126.776 Y101.401 E.4277
G1 X142.517 Y99.154 E.79798
G1 X154.193 Y97.213 E.59401
G1 X165.582 Y95.073 E.58157
G1 X176.001 Y92.896 E.53418
G1 X176.227 Y92.956 E.01173
G1 X177.081 Y93.57 E.05279
G1 X177.21 Y93.801 E.01328
G1 X178.965 Y109.036 E.76964
G1 X178.933 Y109.823 E.03953
G1 X178.819 Y110.251 E.02223
G1 X178.363 Y111.066 E.04687
G1 X177.694 Y111.666 E.0451
G1 X176.873 Y112.021 E.04489
G1 X45.917 Y127.136 E6.61578
G1 X45.087 Y127.099 E.0417
G1 X44.189 Y126.754 E.04828
G1 X43.556 Y126.234 E.04111
G1 X43.29 Y125.888 E.0219
G1 X42.92 Y125.045 E.0462
G1 X41.014 Y108.718 E.82495
G1 X41.097 Y108.467 E.01327
G1 X41.773 Y107.687 E.0518
G1 X41.775 Y107.685 E.00014
G1 X42.058 Y107.93 F7800
G1 F1800
G1 X42.073 Y107.912 E.00118
G1 X57.653 Y107.43 E.78227
G1 X74.991 Y106.575 E.87118
G1 X93.064 Y105.299 E.90927
G1 X109.579 Y103.761 E.83241
G1 X118.358 Y102.788 E.44328
G1 X126.82 Y101.743 E.4279
G1 X142.57 Y99.494 E.79845
G1 X154.253 Y97.553 E.59436
G1 X165.65 Y95.412 E.58197
G1 X175.987 Y93.244 E.53006
G1 X176.872 Y93.881 E.05472
G1 X178.621 Y109.058 E.76671
G1 X178.592 Y109.773 E.03591
G1 X178.49 Y110.145 E.01936
G1 X178.087 Y110.859 E.04115
G1 X177.518 Y111.369 E.03835
G1 X176.796 Y111.684 E.03953
G1 X45.884 Y126.792 E6.61354
G1 X45.167 Y126.763 E.03601
G1 X44.376 Y126.463 E.04246
G1 X43.805 Y125.995 E.03705
G1 X43.572 Y125.69 E.01926
G1 X43.256 Y124.968 E.03955
G1 X41.363 Y108.732 E.82034
G1 X42.018 Y107.975 E.05024
;WIPE_START
G1 F6240
G1 X42.058 Y107.93 E-.0165
G1 X42.073 Y107.912 E-.00642
G1 X44.907 Y107.824 E-.77708
;WIPE_END
G1 X141.037 Y118.522 F7800
G1 E.8 F1800
;TYPE:Support material
G1 X138.23 Y118.522 E.14087
G1 X138.23 Y121.329 E.14087
G1 X112.966 Y121.329 E1.2679
G1 X112.966 Y124.137 E.14092
G1 X95.851 Y124.137 E.85893
G1 X95.851 Y122.079 E.10328
G1 X141.037 Y116.872 E2.28271
G1 X141.037 Y118.471 E.08025
G1 X140.679 Y118.367 F7800
G1 F1800
G1 X140.679 Y117.226 E.05726
G1 X140.296 Y117.27 E.01935
G1 X140.296 Y118.212 E.04728
G1 X139.913 Y118.212 E.01922
G1 X139.913 Y117.314 E.04507
G1 X139.53 Y117.358 E.01935
G1 X139.53 Y118.212 E.04286
G1 X139.146 Y118.212 E.01927
G1 X139.146 Y117.402 E.04065
G1 X138.763 Y117.446 E.01935
G1 X138.763 Y118.212 E.03844
G1 X138.38 Y118.212 E.01922
G1 X138.38 Y117.491 E.03618
G1 X137.997 Y117.535 E.01935
G1 X137.997 Y118.212 E.03398
G1 X137.919 Y118.212 E.00391
G1 X137.919 Y121.019 E.14087
G1 X137.614 Y121.019 E.01531
G1 X137.614 Y117.579 E.17264
G1 X137.23 Y117.623 E.0194
G1 X137.23 Y121.019 E.17043
G1 X136.847 Y121.019 E.01922
G1 X136.847 Y117.667 E.16822
G1 X136.464 Y117.711 E.01935
G1 X136.464 Y121.019 E.16602
G1 X136.081 Y121.019 E.01922
G1 X136.081 Y117.756 E.16376
G1 X135.698 Y117.8 E.01935
G1 X135.698 Y121.019 E.16155
G1 X135.314 Y121.019 E.01927
G1 X135.314 Y117.844 E.15934
G1 X134.931 Y117.888 E.01935
G1 X134.931 Y121.019 E.15713
G1 X134.548 Y121.019 E.01922
G1 X134.548 Y117.932 E.15492
G1 X134.165 Y117.976 E.01935
G1 X134.165 Y121.019 E.15272
G1 X133.782 Y121.019 E.01922
G1 X133.782 Y118.021 E.15046
G1 X133.398 Y118.065 E.0194
G1 X133.398 Y121.019 E.14825
G1 X133.015 Y121.019 E.01922
G1 X133.015 Y118.109 E.14604
G1 X132.632 Y118.153 E.01935
G1 X132.632 Y121.019 E.14383
G1 X132.249 Y121.019 E.01922
G1 X132.249 Y118.197 E.14162
G1 X131.865 Y118.241 E.0194
G1 X131.865 Y121.019 E.13942
G1 X131.482 Y121.019 E.01922
G1 X131.482 Y118.285 E.13721
G1 X131.099 Y118.33 E.01935
G1 X131.099 Y121.019 E.13495
G1 X130.716 Y121.019 E.01922
G1 X130.716 Y118.374 E.13274
G1 X130.333 Y118.418 E.01935
G1 X130.333 Y121.019 E.13053
G1 X129.949 Y121.019 E.01927
G1 X129.949 Y118.462 E.12833
G1 X129.566 Y118.506 E.01935
G1 X129.566 Y121.019 E.12612
G1 X129.183 Y121.019 E.01922
G1 X129.183 Y118.55 E.12391
G1 X128.8 Y118.595 E.01935
G1 X128.8 Y121.019 E.12165
G1 X128.417 Y121.019 E.01922
G1 X128.417 Y118.639 E.11944
G1 X128.033 Y118.683 E.0194
G1 X128.033 Y121.019 E.11723
G1 X127.65 Y121.019 E.01922
G1 X127.65 Y118.727 E.11503
G1 X127.267 Y118.771 E.01935
G1 X127.267 Y121.019 E.11282
G1 X126.884 Y121.019 E.01922
G1 X126.884 Y118.815 E.11061
G1 X126.501 Y118.86 E.01935
G1 X126.501 Y121.019 E.10835
G1 X126.117 Y121.019 E.01927
G1 X126.117 Y118.904 E.10614
G1 X125.734 Y118.948 E.01935
G1 X125.734 Y121.019 E.10394
G1 X125.351 Y121.019 E.01922
G1 X125.351 Y118.992 E.10173
G1 X124.968 Y119.036 E.01935
G1 X124.968 Y121.019 E.09952
G1 X124.584 Y121.019 E.01927
G1 X124.584 Y119.08 E.09731
G1 X124.201 Y119.124 E.01935
G1 X124.201 Y121.019 E.0951
G1 X123.818 Y121.019 E.01922
G1 X123.818 Y119.169 E.09284
G1 X123.435 Y119.213 E.01935
G1 X123.435 Y121.019 E.09064
G1 X123.052 Y121.019 E.01922
G1 X123.052 Y119.257 E.08843
G1 X122.668 Y119.301 E.0194
G1 X122.668 Y121.019 E.08622
G1 X122.285 Y121.019 E.01922
G1 X122.285 Y119.345 E.08401
G1 X121.902 Y119.389 E.01935
G1 X121.902 Y121.019 E.0818
G1 X121.519 Y121.019 E.01922
G1 X121.519 Y119.434 E.07954
G1 X121.136 Y119.478 E.01935
G1 X121.136 Y121.019 E.07734
G1 X120.752 Y121.019 E.01927
G1 X120.752 Y119.522 E.07513
G1 X120.369 Y119.566 E.01935
G1 X120.369 Y121.019 E.07292
G1 X119.986 Y121.019 E.01922
G1 X119.986 Y119.61 E.07071
G1 X119.603 Y119.654 E.01935
G1 X119.603 Y121.019 E.0685
G1 X119.22 Y121.019 E.01922
G1 X119.22 Y119.699 E.06625
G1 X118.836 Y119.743 E.0194
G1 X118.836 Y121.019 E.06404
G1 X118.453 Y121.019 E.01922
G1 X118.453 Y119.787 E.06183
G1 X118.07 Y119.831 E.01935
G1 X118.07 Y121.019 E.05962
G1 X117.687 Y121.019 E.01922
G1 X117.687 Y119.875 E.05741
G1 X117.303 Y119.919 E.0194
G1 X117.303 Y121.019 E.0552
G1 X116.92 Y121.019 E.01922
G1 X116.92 Y119.963 E.053
G1 X116.537 Y120.008 E.01935
G1 X116.537 Y121.019 E.05074
G1 X116.154 Y121.019 E.01922
G1 X116.154 Y120.052 E.04853
G1 X115.771 Y120.096 E.01935
G1 X115.771 Y121.019 E.04632
G1 X115.387 Y121.019 E.01927
G1 X115.387 Y120.14 E.04411
G1 X115.004 Y120.184 E.01935
G1 X115.004 Y121.019 E.04191
G1 X114.621 Y121.019 E.01922
G1 X114.621 Y120.228 E.0397
G1 X114.238 Y120.273 E.01935
G1 X114.238 Y121.019 E.03744
G1 X113.855 Y121.019 E.01922
G1 X113.855 Y120.317 E.03523
G1 X113.471 Y120.361 E.0194
G1 X113.471 Y121.019 E.03302
G1 X113.088 Y121.019 E.01922
G1 X113.088 Y120.405 E.03081
G1 X112.705 Y120.449 E.01935
G1 X112.656 Y123.826 E.1695
G1 X112.322 Y123.826 E.01676
G1 X112.322 Y120.493 E.16727
G1 X111.939 Y120.538 E.01935
G1 X111.939 Y123.826 E.16501
G1 X111.555 Y123.826 E.01927
G1 X111.555 Y120.582 E.1628
G1 X111.172 Y120.626 E.01935
G1 X111.172 Y123.826 E.16059
G1 X110.789 Y123.826 E.01922
G1 X110.789 Y120.67 E.15839
G1 X110.406 Y120.714 E.01935
G1 X110.406 Y123.826 E.15618
G1 X110.023 Y123.826 E.01922
G1 X110.023 Y120.758 E.15397
G1 X109.639 Y120.803 E.0194
G1 X109.639 Y123.826 E.15171
G1 X109.256 Y123.826 E.01922
G1 X109.256 Y120.847 E.1495
G1 X108.873 Y120.891 E.01935
G1 X108.873 Y123.826 E.1473
G1 X108.49 Y123.826 E.01922
G1 X108.49 Y120.935 E.14509
G1 X108.106 Y120.979 E.0194
G1 X108.106 Y123.826 E.14288
G1 X107.723 Y123.826 E.01922
G1 X107.723 Y121.023 E.14067
G1 X107.34 Y121.067 E.01935
G1 X107.34 Y123.826 E.13846
G1 X106.957 Y123.826 E.01922
G1 X106.957 Y121.112 E.1362
G1 X106.574 Y121.156 E.01935
G1 X106.574 Y123.826 E.134
G1 X106.19 Y123.826 E.01927
G1 X106.19 Y121.2 E.13179
G1 X105.807 Y121.244 E.01935
G1 X105.807 Y123.826 E.12958
G1 X105.424 Y123.826 E.01922
G1 X105.424 Y121.288 E.12737
G1 X105.041 Y121.332 E.01935
G1 X105.041 Y123.826 E.12516
G1 X104.658 Y123.826 E.01922
G1 X104.658 Y121.377 E.12291
G1 X104.274 Y121.421 E.0194
G1 X104.274 Y123.826 E.1207
G1 X103.891 Y123.826 E.01922
G1 X103.891 Y121.465 E.11849
G1 X103.508 Y121.509 E.01935
G1 X103.508 Y123.826 E.11628
G1 X103.125 Y123.826 E.01922
G1 X103.125 Y121.553 E.11407
G1 X102.742 Y121.597 E.01935
G1 X102.742 Y123.826 E.11186
G1 X102.358 Y123.826 E.01927
G1 X102.358 Y121.642 E.10961
G1 X101.975 Y121.686 E.01935
G1 X101.975 Y123.826 E.1074
G1 X101.592 Y123.826 E.01922
G1 X101.592 Y121.73 E.10519
G1 X101.209 Y121.774 E.01935
G1 X101.209 Y123.826 E.10298
G1 X100.825 Y123.826 E.01927
G1 X100.825 Y121.818 E.10077
G1 X100.442 Y121.862 E.01935
G1 X100.442 Y123.826 E.09857
G1 X100.059 Y123.826 E.01922
G1 X100.059 Y121.906 E.09636
G1 X99.676 Y121.951 E.01935
G1 X99.676 Y123.826 E.0941
G1 X99.293 Y123.826 E.01922
G1 X99.293 Y121.995 E.09189
G1 X98.909 Y122.039 E.0194
G1 X98.909 Y123.826 E.08968
G1 X98.526 Y123.826 E.01922
G1 X98.526 Y122.083 E.08747
G1 X98.143 Y122.127 E.01935
G1 X98.143 Y123.826 E.08527
G1 X97.76 Y123.826 E.01922
G1 X97.76 Y122.171 E.08306
G1 X97.377 Y122.216 E.01935
G1 X97.377 Y123.826 E.0808
G1 X96.993 Y123.826 E.01927
G1 X96.993 Y122.26 E.07859
G1 X96.61 Y122.304 E.01935
G1 X96.61 Y123.826 E.07638
G1 X96.227 Y123.826 E.01922
G1 X96.227 Y122.192 E.082
;WIPE_START
G1 F6240
G1 X96.227 Y123.826 E-.44778
G1 X96.61 Y123.826 E-.10496
G1 X96.61 Y122.924 E-.24726
;WIPE_END
G1 X93.316 Y124.137 F7800
G1 E.8 F1800
G1 X87.702 Y124.137 E.28174
G1 X87.702 Y126.944 E.14087
G1 X76.201 Y126.944 E.57719
G1 X76.201 Y124.343 E.13053
G1 X93.316 Y122.371 E.86461
G1 X93.316 Y124.085 E.08602
G1 X92.778 Y123.981 F7800
G1 F1800
G1 X92.778 Y122.746 E.06198
G1 X92.395 Y122.79 E.01935
G1 X92.395 Y123.826 E.05199
G1 X92.012 Y123.826 E.01922
G1 X92.012 Y122.834 E.04978
G1 X91.628 Y122.878 E.0194
G1 X91.628 Y123.826 E.04758
G1 X91.245 Y123.826 E.01922
G1 X91.245 Y122.922 E.04537
G1 X90.862 Y122.966 E.01935
G1 X90.862 Y123.826 E.04316
G1 X90.479 Y123.826 E.01922
G1 X90.479 Y123.01 E.04095
G1 X90.096 Y123.055 E.01935
G1 X90.096 Y123.826 E.03869
G1 X89.712 Y123.826 E.01927
G1 X89.712 Y123.099 E.03649
G1 X89.329 Y123.143 E.01935
G1 X89.329 Y123.826 E.03428
G1 X88.946 Y123.826 E.01922
G1 X88.946 Y123.187 E.03207
G1 X88.563 Y123.231 E.01935
G1 X88.563 Y123.826 E.02986
G1 X88.18 Y123.826 E.01922
G1 X88.18 Y123.275 E.02765
G1 X87.796 Y123.32 E.0194
G1 X87.796 Y123.826 E.02539
G1 X87.413 Y123.826 E.01922
G1 X87.413 Y123.364 E.02319
G1 X87.03 Y123.408 E.01935
G1 X87.03 Y126.633 E.16185
G1 X86.647 Y126.633 E.01922
G1 X86.647 Y123.452 E.15964
G1 X86.263 Y123.496 E.0194
G1 X86.263 Y126.633 E.15743
G1 X85.88 Y126.633 E.01922
G1 X85.88 Y123.54 E.15523
G1 X85.497 Y123.585 E.01935
G1 X85.497 Y126.633 E.15297
G1 X85.114 Y126.633 E.01922
G1 X85.114 Y123.629 E.15076
G1 X84.731 Y123.673 E.01935
G1 X84.731 Y126.633 E.14855
G1 X84.347 Y126.633 E.01927
G1 X84.347 Y123.717 E.14634
G1 X83.964 Y123.761 E.01935
G1 X83.964 Y126.633 E.14413
G1 X83.581 Y126.633 E.01922
G1 X83.581 Y123.805 E.14193
G1 X83.198 Y123.849 E.01935
G1 X83.198 Y126.633 E.13972
G1 X82.815 Y126.633 E.01922
G1 X82.815 Y123.894 E.13746
G1 X82.431 Y123.938 E.0194
G1 X82.431 Y126.633 E.13525
G1 X82.048 Y126.633 E.01922
G1 X82.048 Y123.982 E.13304
G1 X81.665 Y124.026 E.01935
G1 X81.665 Y126.633 E.13083
G1 X81.282 Y126.633 E.01922
G1 X81.282 Y124.07 E.12863
G1 X80.899 Y124.114 E.01935
G1 X80.899 Y126.633 E.12642
G1 X80.515 Y126.633 E.01927
G1 X80.515 Y124.159 E.12416
G1 X80.132 Y124.203 E.01935
G1 X80.132 Y126.633 E.12195
G1 X79.749 Y126.633 E.01922
G1 X79.749 Y124.247 E.11974
G1 X79.366 Y124.291 E.01935
G1 X79.366 Y126.633 E.11754
G1 X78.982 Y126.633 E.01927
G1 X78.982 Y124.335 E.11533
G1 X78.599 Y124.379 E.01935
G1 X78.599 Y126.633 E.11312
G1 X78.216 Y126.633 E.01922
G1 X78.216 Y124.424 E.11086
G1 X77.833 Y124.468 E.01935
G1 X77.833 Y126.633 E.10865
G1 X77.45 Y126.633 E.01922
G1 X77.45 Y124.512 E.10644
G1 X77.066 Y124.556 E.0194
G1 X77.066 Y126.633 E.10424
G1 X76.683 Y126.633 E.01922
G1 X76.683 Y124.444 E.10986
;WIPE_START
G1 F6240
G1 X76.683 Y126.633 E-.59987
G1 X77.066 Y126.633 E-.10496
G1 X77.066 Y126.286 E-.09517
;WIPE_END
G1 X45.83 Y125.06 F7800
G1 E.8 F1800
;TYPE:Perimeter
;WIDTH:0.42
G1 X45.811 Y125.062 E.00096
G1 X45.594 Y125.063 E.01089
G1 X45.275 Y124.981 E.01653
G1 X45.04 Y124.751 E.0165
G1 X44.908 Y124.404 E.01863
G1 X43.203 Y109.608 E.74746
G1 X53.3 Y109.319 E.50693
G1 X57.723 Y109.156 E.22212
G1 X66.839 Y108.75 E.45795
G1 X75.09 Y108.3 E.4147
G1 X80.152 Y107.983 E.25454
G1 X93.203 Y107.021 E.65675
G1 X106.007 Y105.861 E.64521
G1 X109.761 Y105.479 E.18937
G1 X118.558 Y104.504 E.44419
G1 X127.038 Y103.456 E.42881
G1 X130.841 Y102.95 E.19254
G1 X142.841 Y101.2 E.6086
G1 X154.56 Y99.252 E.5962
G1 X165.982 Y97.107 E.58324
G1 X175.281 Y95.159 E.47681
G1 X176.894 Y109.245 E.71154
G1 X176.891 Y109.345 E.00502
G1 X176.81 Y109.666 E.01661
G1 X176.58 Y109.9 E.01647
G1 X176.232 Y110.033 E.0187
G1 X45.89 Y125.053 E6.58461
G1 X45.87 Y125.402 F7800
;TYPE:External perimeter
G1 F1800
G1 X45.85 Y125.405 E.00101
G1 X45.414 Y125.401 E.02188
G1 X45.104 Y125.285 E.01661
G1 X44.844 Y125.08 E.01662
G1 X44.661 Y124.804 E.01662
G1 X44.568 Y124.47 E.0174
G1 X42.817 Y109.274 E.76767
G1 X53.29 Y108.975 E.52581
G1 X57.711 Y108.812 E.22202
G1 X66.823 Y108.406 E.45775
G1 X75.071 Y107.956 E.41455
G1 X80.124 Y107.64 E.25408
G1 X93.177 Y106.677 E.65686
G1 X105.976 Y105.518 E.64496
G1 X109.726 Y105.136 E.18917
G1 X118.518 Y104.162 E.44393
G1 X126.996 Y103.114 E.42871
G1 X130.789 Y102.609 E.19203
G1 X142.785 Y100.86 E.60839
G1 X154.497 Y98.913 E.59584
G1 X165.918 Y96.768 E.58319
G1 X175.58 Y94.743 E.49543
G1 X177.232 Y109.08 E.72428
G1 X177.239 Y109.258 E.00894
G1 X177.229 Y109.528 E.01356
G1 X177.114 Y109.837 E.01655
G1 X176.908 Y110.097 E.01665
G1 X176.632 Y110.28 E.01662
G1 X176.298 Y110.373 E.0174
G1 X45.929 Y125.396 E6.58598
;WIPE_START
G1 F6240
