; generated by PrusaSlicer 2.7.1+win64 on 2024-02-24 at 01:05:14 UTC

; 

; external perimeters extrusion width = 0.45mm
; perimeters extrusion width = 0.45mm
; infill extrusion width = 0.45mm
; solid infill extrusion width = 0.45mm
; top infill extrusion width = 0.20mm
; first layer extrusion width = 0.42mm

;TYPE:Custom
G90 ; use absolute coordinates
M82 ; extruder absolute mode
M140 S60 ; set final bed temp
M109 S165 ; set temporary nozzle temp to prevent oozing during homing
M190 S60 ; wait for bed temp to stabilize
G28 ; home all axis
M420 S1;
G1 Z50 F240
G1 X2 Y10 F3000
M104 S215 ; set final nozzle temp
M109 S215 ; wait for nozzle temp to stabilize
G1 Z0.28 F240
G92 E0
G1 Y140 E10 F1500 ; prime the nozzle
G1 X2.3 F5000
G92 E0
G1 Y10 E10 F1200 ; prime the nozzle
G92 E0
G21 ; set units to millimeters
G90 ; use absolute coordinates
M82 ; use absolute distances for extrusion
G92 E0
; Filament gcode
M107
;LAYER_CHANGE
;Z:0.35
;HEIGHT:0.35

G1 Z.35 F7800
G1 E-6 F3000
G92 E0
G1 X58.108 Y130.336 F7800
G1 E6 F3000
;TYPE:Skirt/Brim
;WIDTH:0.42
G1 F1800
G1 X59.257 Y129.938 E6.06103
G1 X60.465 Y129.646 E6.1234
G1 X61.878 Y129.466 E6.19489
G1 X208.708 Y128.785 E13.56377
G1 X209.814 Y128.842 E13.61935
G1 X211.053 Y129.023 E13.68219
G1 X212.18 Y129.298 E13.74041
G1 X213.362 Y129.711 E13.80325
G1 X214.434 Y130.206 E13.86251
G1 X215.529 Y130.846 E13.92616
G1 X216.407 Y131.478 E13.98045
G1 X217.38 Y132.323 E14.04512
G1 X218.23 Y133.229 E14.10747
G1 X218.905 Y134.099 E14.16273
G1 X219.563 Y135.126 E14.22394
G1 X220.123 Y136.227 E14.28593
G1 X220.597 Y137.441 E14.35134
G1 X220.937 Y138.681 E14.41587
G1 X221.219 Y140.808 E14.52355
G1 X221.325 Y172.787 E16.12845
G1 X220.934 Y174.997 E16.24108
G1 X219.441 Y177.317 E16.37954
G1 X216.46 Y180.265 E16.58994
G1 X214.611 Y181.536 E16.70254
G1 X211.909 Y182.098 E16.84104
G1 X205.142 Y182.001 E17.18068
G1 X195.853 Y181.728 E17.64706
G1 X186.593 Y181.271 E18.11235
G1 X177.358 Y180.631 E18.57693
G1 X167.88 Y179.787 E19.05447
G1 X158.638 Y178.782 E19.52102
G1 X149.336 Y177.591 E19.99166
G1 X139.977 Y176.212 E20.46642
G1 X130.78 Y174.682 E20.93432
G1 X121.536 Y172.973 E21.4061
G1 X63.463 Y161.549 E24.3764
G1 X61.393 Y160.746 E24.48783
G1 X59.226 Y159.429 E24.61509
G1 X57.04 Y157.204 E24.77163
G1 X51.478 Y147.605 E25.32839
G1 X51.019 Y146.552 E25.38604
G1 X50.635 Y145.383 E25.44779
G1 X50.24 Y143.215 E25.55838
G1 X50.186 Y141.864 E25.62624
G1 X50.268 Y140.614 E25.68911
G1 X50.472 Y139.364 E25.75267
G1 X50.767 Y138.259 E25.81007
G1 X51.218 Y137.043 E25.87516
G1 X51.802 Y135.867 E25.94106
G1 X52.421 Y134.876 E25.9997
G1 X53.192 Y133.87 E26.06331
G1 X53.954 Y133.055 E26.1193
G1 X54.877 Y132.228 E26.1815
G1 X55.924 Y131.472 E26.24631
G1 X56.982 Y130.852 E26.30785
G1 X58.054 Y130.361 E26.36702
G1 E22.16702 F3000
;WIPE_START
G1 F6240
G1 X58.108 Y130.336 E22.13984
G1 X59.257 Y129.938 E21.58446
G1 X60.465 Y129.646 E21.01684
G1 X61.877 Y129.466 E20.36702
;WIPE_END
G92 E0
G1 X60.468 Y136.598 F7800
G1 E6 F3000
G1 F1800
G1 X61.534 Y136.256 E6.05618
G1 X62.664 Y136.118 E6.11331
G1 X209.319 Y135.514 E13.47339
G1 X210.299 Y135.718 E13.52363
G1 X211.275 Y136.103 E13.57628
G1 X212.161 Y136.649 E13.62851
G1 X212.941 Y137.343 E13.68091
G1 X213.694 Y138.34 E13.74361
G1 X214.092 Y139.126 E13.78782
G1 X214.411 Y140.146 E13.84145
G1 X214.544 Y141.252 E13.89736
G1 X214.626 Y171.194 E15.40003
G1 X214.292 Y172.548 E15.47002
G1 X213.542 Y173.751 E15.54117
G1 X212.45 Y174.707 E15.61401
G1 X211.616 Y175.11 E15.6605
G1 X210.4 Y175.387 E15.72309
G1 X196.128 Y175.045 E16.43955
G1 X186.958 Y174.592 E16.90032
G1 X177.805 Y173.957 E17.36078
G1 X168.588 Y173.136 E17.82517
G1 X159.459 Y172.144 E18.28601
G1 X150.237 Y170.963 E18.7526
G1 X141.085 Y169.615 E19.21686
G1 X131.918 Y168.091 E19.68323
G1 X122.716 Y166.389 E20.15287
G1 X113.55 Y164.523 E20.62231
G1 X104.345 Y162.481 E21.0955
G1 X95.17 Y160.279 E21.56903
G1 X77.277 Y155.6 E22.4972
G1 X65.085 Y154.929 E23.10999
G1 X64.259 Y154.636 E23.15397
G1 X63.516 Y154.213 E23.19688
G1 X62.365 Y153.058 E23.27871
G1 X57.6 Y144.887 E23.75341
G1 X57.093 Y143.637 E23.82111
G1 X56.881 Y142.284 E23.88984
G1 X56.954 Y141.078 E23.95047
G1 X57.263 Y139.934 E24.00994
G1 X57.797 Y138.869 E24.06973
G1 X58.556 Y137.907 E24.13123
G1 X59.605 Y137.053 E24.19911
G1 X60.415 Y136.626 E24.24506
G1 X60.575 Y136.931 F7800
G1 F1800
G1 X60.614 Y136.91 E24.24728
G1 X61.623 Y136.59 E24.3004
G1 X62.675 Y136.463 E24.35358
G1 X209.267 Y135.855 E31.7105
G1 X210.187 Y136.045 E31.75765
G1 X211.108 Y136.406 E31.8073
G1 X211.943 Y136.918 E31.85646
G1 X212.685 Y137.575 E31.9062
G1 X213.403 Y138.524 E31.96592
G1 X213.777 Y139.268 E32.00771
G1 X214.076 Y140.233 E32.05841
G1 X214.199 Y141.263 E32.11047
G1 X214.286 Y171.134 E33.60958
G1 X213.983 Y172.391 E33.67447
G1 X213.294 Y173.51 E33.74042
G1 X212.277 Y174.407 E33.80848
G1 X211.518 Y174.779 E33.8509
G1 X210.384 Y175.042 E33.90932
G1 X196.143 Y174.7 E34.62422
G1 X186.98 Y174.248 E35.08463
G1 X177.83 Y173.613 E35.54494
G1 X168.624 Y172.793 E36.00878
G1 X159.498 Y171.801 E36.46947
G1 X150.285 Y170.621 E36.93561
G1 X141.137 Y169.274 E37.39966
G1 X131.976 Y167.751 E37.86572
G1 X122.78 Y166.05 E38.33506
G1 X113.62 Y164.185 E38.80419
G1 X104.421 Y162.144 E39.27708
G1 X95.252 Y159.944 E39.7503
G1 X77.331 Y155.257 E40.67993
G1 X65.176 Y154.596 E41.29084
G1 X64.416 Y154.329 E41.33127
G1 X63.707 Y153.925 E41.37222
G1 X62.652 Y152.865 E41.44727
G1 X57.904 Y144.724 E41.92024
G1 X57.421 Y143.527 E41.98502
G1 X57.224 Y142.25 E42.04987
G1 X57.297 Y141.118 E42.1068
G1 X57.591 Y140.042 E42.16278
G1 X58.097 Y139.04 E42.21911
G1 X58.798 Y138.152 E42.27589
G1 X59.797 Y137.34 E42.3405
G1 X60.522 Y136.959 E42.3816
G1 X60.682 Y137.264 F7800
G1 F1800
G1 X60.761 Y137.223 E42.38607
G1 X61.681 Y136.93 E42.43453
G1 X62.687 Y136.808 E42.48539
G1 X209.216 Y136.197 E49.83915
G1 X210.076 Y136.372 E49.88319
G1 X210.941 Y136.708 E49.92976
G1 X211.75 Y137.204 E49.97738
G1 X212.429 Y137.806 E50.02292
G1 X212.791 Y138.237 E50.05117
G1 X213.463 Y139.409 E50.11897
G1 X213.742 Y140.319 E50.16674
G1 X213.854 Y141.274 E50.215
G1 X213.941 Y171.114 E51.71255
G1 X213.655 Y172.282 E51.7729
G1 X213.046 Y173.269 E51.8311
G1 X212.102 Y174.109 E51.89452
G1 X211.419 Y174.448 E51.93279
G1 X210.367 Y174.696 E51.98703
G1 X196.158 Y174.356 E52.70033
G1 X187.002 Y173.903 E53.16039
G1 X177.856 Y173.269 E53.62049
G1 X168.66 Y172.45 E54.08383
G1 X159.536 Y171.458 E54.54442
G1 X150.334 Y170.28 E55.01
G1 X141.192 Y168.934 E55.47375
G1 X132.035 Y167.411 E55.93962
G1 X122.847 Y165.712 E56.40855
G1 X113.69 Y163.847 E56.87754
G1 X104.5 Y161.808 E57.34996
G1 X95.334 Y159.609 E57.82302
G1 X77.385 Y154.915 E58.7541
G1 X65.268 Y154.262 E59.36309
G1 X64.545 Y154.009 E59.40153
G1 X63.899 Y153.638 E59.43892
G1 X62.939 Y152.672 E59.50727
G1 X58.208 Y144.561 E59.97851
G1 X57.749 Y143.417 E60.04037
G1 X57.568 Y142.218 E60.10122
G1 X57.64 Y141.159 E60.15449
G1 X57.919 Y140.151 E60.20698
G1 X58.397 Y139.212 E60.25986
G1 X59.041 Y138.398 E60.31195
G1 X59.989 Y137.626 E60.37331
G1 X60.629 Y137.292 E60.40954
G1 X60.788 Y137.597 F7800
G1 F1800
G1 X60.906 Y137.536 E60.41621
G1 X61.768 Y137.264 E60.46157
G1 X62.698 Y137.153 E60.50857
G1 X209.165 Y136.539 E67.85921
G1 X209.966 Y136.699 E67.9002
G1 X210.775 Y137.011 E67.94372
G1 X211.533 Y137.473 E67.98827
G1 X212.174 Y138.038 E68.03115
G1 X212.819 Y138.891 E68.08482
G1 X213.147 Y139.55 E68.12176
G1 X213.408 Y140.404 E68.16658
G1 X213.51 Y141.285 E68.21109
G1 X213.596 Y171.094 E69.70709
G1 X213.346 Y172.127 E69.76043
G1 X212.796 Y173.03 E69.81349
G1 X211.926 Y173.812 E69.8722
G1 X211.318 Y174.118 E69.90636
G1 X210.35 Y174.351 E69.95633
G1 X196.174 Y174.011 E70.66797
G1 X187.021 Y173.559 E71.12788
G1 X177.881 Y172.925 E71.58768
G1 X168.695 Y172.107 E72.05051
G1 X159.575 Y171.116 E72.5109
G1 X150.383 Y169.939 E72.97598
G1 X141.244 Y168.593 E73.43958
G1 X132.093 Y167.071 E73.90514
G1 X122.914 Y165.373 E74.37361
G1 X113.76 Y163.51 E74.84243
G1 X104.579 Y161.473 E75.31439
G1 X95.416 Y159.274 E75.7873
G1 X77.439 Y154.572 E76.71984
G1 X65.357 Y153.929 E77.32704
G1 X64.702 Y153.701 E77.36185
G1 X64.09 Y153.35 E77.39726
G1 X63.226 Y152.479 E77.45883
G1 X58.512 Y144.398 E77.92834
G1 X58.087 Y143.346 E77.98528
G1 X57.912 Y142.186 E78.04415
G1 X57.983 Y141.202 E78.09366
G1 X58.246 Y140.261 E78.14269
G1 X58.678 Y139.412 E78.1905
G1 X59.284 Y138.643 E78.23964
G1 X60.181 Y137.913 E78.29768
G1 X60.734 Y137.625 E78.32897
G1 X60.893 Y137.931 F7800
G1 F1800
G1 X61.051 Y137.849 E78.3379
G1 X61.856 Y137.598 E78.38022
G1 X62.709 Y137.498 E78.42332
G1 X209.116 Y136.88 E85.77095
G1 X209.858 Y137.026 E85.8089
G1 X210.611 Y137.314 E85.84936
G1 X211.318 Y137.742 E85.89084
G1 X212.241 Y138.652 E85.95589
G1 X212.832 Y139.69 E86.01583
G1 X213.067 Y140.46 E86.05623
G1 X213.165 Y141.295 E86.09842
G1 X213.251 Y171.075 E87.59296
G1 X213.037 Y171.973 E87.63929
G1 X212.545 Y172.793 E87.68728
G1 X211.748 Y173.516 E87.74128
G1 X211.215 Y173.788 E87.77131
G1 X210.332 Y174.006 E87.81695
G1 X196.189 Y173.667 E88.52693
G1 X187.043 Y173.215 E88.98649
G1 X177.907 Y172.581 E89.44609
G1 X168.731 Y171.764 E89.90842
G1 X159.614 Y170.773 E90.36866
G1 X150.431 Y169.597 E90.83328
G1 X141.295 Y168.252 E91.29672
G1 X132.151 Y166.731 E91.76193
G1 X122.979 Y165.035 E92.23004
G1 X113.831 Y163.172 E92.69856
G1 X104.658 Y161.137 E93.17011
G1 X95.498 Y158.939 E93.64286
G1 X77.493 Y154.23 E94.57685
G1 X65.447 Y153.595 E95.18223
G1 X64.832 Y153.381 E95.21491
G1 X64.283 Y153.063 E95.24675
G1 X63.513 Y152.287 E95.30161
G1 X58.817 Y144.235 E95.76941
G1 X58.414 Y143.236 E95.82347
G1 X58.256 Y142.155 E95.8783
G1 X58.32 Y141.277 E95.92248
G1 X58.562 Y140.401 E95.96809
G1 X58.96 Y139.611 E96.01248
G1 X59.528 Y138.888 E96.05862
G1 X60.372 Y138.201 E96.11324
G1 X60.84 Y137.959 E96.13968
G1 X60.997 Y138.265 F7800
G1 F1800
G1 X61.195 Y138.163 E96.15086
G1 X61.942 Y137.932 E96.1901
G1 X62.72 Y137.842 E96.22941
G1 X209.067 Y137.222 E103.57403
G1 X209.75 Y137.354 E103.60894
G1 X210.447 Y137.618 E103.64634
G1 X211.102 Y138.012 E103.6847
G1 X211.663 Y138.503 E103.72211
G1 X212.234 Y139.258 E103.76962
G1 X212.516 Y139.83 E103.80163
G1 X212.732 Y140.544 E103.83907
G1 X212.82 Y141.306 E103.87757
G1 X212.906 Y171.056 E105.37061
G1 X212.726 Y171.821 E105.41005
G1 X212.292 Y172.557 E105.45293
G1 X211.568 Y173.221 E105.50223
G1 X211.11 Y173.459 E105.52813
G1 X210.314 Y173.661 E105.56934
G1 X196.204 Y173.322 E106.27767
G1 X187.062 Y172.87 E106.73703
G1 X177.932 Y172.238 E107.19632
G1 X168.766 Y171.421 E107.65815
G1 X159.653 Y170.43 E108.11819
G1 X150.48 Y169.256 E108.5823
G1 X141.35 Y167.911 E109.04544
G1 X132.209 Y166.391 E109.51049
G1 X123.043 Y164.696 E109.97829
G1 X113.901 Y162.834 E110.44651
G1 X104.737 Y160.801 E110.9176
G1 X95.58 Y158.604 E111.39019
G1 X77.547 Y153.887 E112.32564
G1 X65.536 Y153.261 E112.92924
G1 X64.989 Y153.074 E112.95825
G1 X64.476 Y152.776 E112.98802
G1 X63.8 Y152.094 E113.03621
G1 X59.121 Y144.073 E113.50224
G1 X58.742 Y143.128 E113.55334
G1 X58.6 Y142.126 E113.60413
G1 X58.662 Y141.321 E113.64465
G1 X58.889 Y140.511 E113.68687
G1 X59.26 Y139.783 E113.72788
G1 X59.771 Y139.132 E113.76941
G1 X60.563 Y138.488 E113.82064
G1 X60.944 Y138.292 E113.84214
G1 X61.1 Y138.599 F7800
G1 F1800
G1 X61.339 Y138.477 E113.85561
G1 X61.998 Y138.273 E113.89023
G1 X62.731 Y138.187 E113.92727
G1 X209.019 Y137.564 E121.26893
G1 X209.643 Y137.683 E121.30081
G1 X210.284 Y137.922 E121.33514
G1 X210.888 Y138.282 E121.37043
G1 X211.69 Y139.068 E121.42679
G1 X212.2 Y139.969 E121.47875
G1 X212.397 Y140.628 E121.51327
G1 X212.475 Y141.316 E121.54802
G1 X212.561 Y171.038 E123.03965
G1 X212.414 Y171.671 E123.07226
G1 X212.038 Y172.322 E123.10999
G1 X211.386 Y172.927 E123.15463
G1 X211.002 Y173.131 E123.17645
G1 X210.295 Y173.316 E123.21313
G1 X196.22 Y172.978 E123.9197
G1 X187.084 Y172.526 E124.37876
G1 X177.958 Y171.894 E124.83785
G1 X168.802 Y171.078 E125.29917
G1 X159.692 Y170.088 E125.75906
G1 X150.529 Y168.914 E126.22267
G1 X141.405 Y167.571 E126.6855
G1 X132.267 Y166.051 E127.1504
G1 X123.11 Y164.357 E127.61775
G1 X113.971 Y162.497 E128.0858
G1 X104.816 Y160.466 E128.55642
G1 X95.661 Y158.269 E129.02892
G1 X77.601 Y153.545 E129.96577
G1 X65.625 Y152.927 E130.5676
G1 X65.118 Y152.753 E130.5945
G1 X64.67 Y152.491 E130.62055
G1 X64.087 Y151.902 E130.66214
G1 X59.425 Y143.91 E131.12648
G1 X59.071 Y143.02 E131.17455
G1 X58.945 Y142.099 E131.2212
G1 X59.004 Y141.366 E131.25811
G1 X59.216 Y140.622 E131.29693
G1 X59.559 Y139.956 E131.33453
G1 X60.014 Y139.377 E131.37149
G1 X60.754 Y138.776 E131.41933
G1 X61.047 Y138.626 E131.43585
G1 X61.203 Y138.932 F7800
G1 F1800
G1 X61.481 Y138.791 E131.45149
G1 X62.083 Y138.607 E131.48308
G1 X62.742 Y138.532 E131.51637
G1 X208.972 Y137.906 E138.85512
G1 X209.538 Y138.012 E138.88402
G1 X210.122 Y138.227 E138.91525
G1 X210.674 Y138.554 E138.94745
G1 X211.155 Y138.97 E138.97937
G1 X211.648 Y139.622 E139.02039
G1 X211.884 Y140.107 E139.04746
G1 X212.056 Y140.683 E139.07763
G1 X212.13 Y141.327 E139.11016
G1 X212.217 Y171.019 E140.60029
G1 X212.102 Y171.524 E140.62628
G1 X211.782 Y172.09 E140.65891
G1 X211.201 Y172.636 E140.69892
G1 X210.891 Y172.804 E140.71662
G1 X210.275 Y172.97 E140.74864
G1 X196.235 Y172.633 E141.45345
G1 X187.106 Y172.182 E141.91216
G1 X177.983 Y171.55 E142.3711
G1 X168.838 Y170.735 E142.83187
G1 X159.731 Y169.745 E143.29161
G1 X150.577 Y168.573 E143.75476
G1 X141.457 Y167.23 E144.21739
G1 X132.325 Y165.711 E144.68198
G1 X123.174 Y164.019 E145.14902
G1 X114.041 Y162.159 E145.61678
G1 X104.892 Y160.129 E146.0871
G1 X95.743 Y157.934 E146.55928
G1 X77.654 Y153.202 E147.49764
G1 X65.711 Y152.592 E148.09779
G1 X64.864 Y152.204 E148.14455
G1 X64.374 Y151.709 E148.1795
G1 X59.73 Y143.747 E148.64208
G1 X59.409 Y142.95 E148.6852
G1 X59.29 Y142.106 E148.72798
G1 X59.341 Y141.442 E148.7614
G1 X59.531 Y140.763 E148.79679
G1 X59.841 Y140.155 E148.83104
G1 X60.259 Y139.621 E148.86507
G1 X60.944 Y139.064 E148.90938
G1 X61.149 Y138.96 E148.92092
G1 X61.304 Y139.267 F7800
G1 F1800
G1 X61.622 Y139.106 E148.93881
G1 X62.167 Y138.942 E148.96737
G1 X62.752 Y138.877 E148.99691
G1 X208.926 Y138.248 E156.33285
G1 X209.435 Y138.341 E156.35882
G1 X209.962 Y138.533 E156.38697
G1 X210.461 Y138.825 E156.41599
G1 X211.14 Y139.484 E156.46348
G1 X211.567 Y140.244 E156.50723
G1 X211.785 Y141.337 E156.56316
G1 X211.872 Y171.002 E158.05193
G1 X211.787 Y171.381 E158.07142
G1 X211.524 Y171.859 E158.0988
G1 X211.012 Y172.346 E158.13426
G1 X210.254 Y172.625 E158.1748
G1 X196.25 Y172.289 E158.87781
G1 X187.128 Y171.838 E159.33617
G1 X178.009 Y171.206 E159.79491
G1 X168.873 Y170.392 E160.25522
G1 X159.77 Y169.402 E160.71476
G1 X150.626 Y168.231 E161.17741
G1 X141.509 Y166.889 E161.63989
G1 X132.383 Y165.371 E162.10418
G1 X123.239 Y163.68 E162.57086
G1 X114.112 Y161.821 E163.03831
G1 X104.968 Y159.793 E163.50836
G1 X95.825 Y157.599 E163.98024
G1 X77.708 Y152.859 E164.92006
G1 X65.796 Y152.257 E165.51864
G1 X65.058 Y151.918 E165.5594
G1 X64.661 Y151.516 E165.58775
G1 X60.034 Y143.584 E166.0486
G1 X59.737 Y142.843 E166.08866
G1 X59.634 Y142.079 E166.12735
G1 X59.683 Y141.488 E166.15711
G1 X59.847 Y140.903 E166.1876
G1 X60.124 Y140.353 E166.21851
G1 X60.503 Y139.864 E166.24956
G1 X61.133 Y139.353 E166.29027
G1 X61.25 Y139.294 E166.29685
G1 X61.404 Y139.601 F7800
G1 F1800
G1 X61.762 Y139.422 E166.31694
G1 X62.762 Y139.222 E166.36812
G1 X208.882 Y138.59 E173.70135
G1 X209.803 Y138.84 E173.74924
G1 X210.648 Y139.438 E173.80119
G1 X211.06 Y139.985 E173.83556
G1 X211.25 Y140.38 E173.85756
G1 X211.44 Y141.347 E173.90702
G1 X211.527 Y170.984 E175.39439
G1 X211.264 Y171.631 E175.42944
G1 X210.82 Y172.059 E175.46039
G1 X210.232 Y172.28 E175.49191
G1 X196.265 Y171.944 E176.19306
G1 X187.15 Y171.494 E176.65106
G1 X178.035 Y170.862 E177.1096
G1 X168.909 Y170.049 E177.56941
G1 X159.809 Y169.06 E178.02879
G1 X150.674 Y167.89 E178.49098
G1 X141.561 Y166.548 E178.95326
G1 X132.444 Y165.032 E179.41709
G1 X123.306 Y163.341 E179.88347
G1 X114.182 Y161.484 E180.35075
G1 X105.044 Y159.456 E180.82051
G1 X95.907 Y157.264 E181.29207
G1 X77.761 Y152.517 E182.23339
